X:18802
T:Willie Kennedy's Jig
R:jig
C:Jerry Holland, SOCAN
O:20th Century Cape Breton
S:Tune ofthe Month, Aug. 2000
A:<http://www.jerryholland.com>
B:Jerry Holland: The Second Collection (Nov. 2000)
A:<http://www.jerryholland.com>
N:Contacts ...
N:..... Jerry Holland <jerry@cranfordpub.com>
N:Tune books, related recordings
N:..... Cranford Publications <http://www.cranfordpub.com>
H:Copyrights - www.fiddlesticksmusic.com (SOCAN)
Z:Paul Stewart Cranford <psc@cranfordpub.com>
L:1/8
Q:300
M:6/8
K:D
g|fef (f/g/a) b|afe d2 A|BAB cde|fee ede|!
fef (f/g/a) b|afe d2 A|BAB cde|fdd d2:|!
|:E|DED DFA|GFE FED|BAF Bde|fee edB|!
DED DFA|GFE FED|BAF Bde|fdd d2:|!


